Papirus/16x16/actions/object-rows.svg

<?xml version="1.0" encoding="UTF-8" standalone="no"?>
<svg id="svg6394" xmlns:rdf="http://www.w3.org/1999/02/22-rdf-syntax-ns#" xmlns="http://www.w3.org/2000/svg" xmlns:osb="http://www.openswatchbook.org/uri/2009/osb" height="16" width="16" version="1.1" xmlns:cc="http://creativecommons.org/ns#" viewBox="0 0 16 16" xmlns:dc="http://purl.org/dc/elements/1.1/">
 <metadata id="metadata6399">
  <rdf:RDF>
   <cc:Work rdf:about="">
    <dc:format>image/svg+xml</dc:format>
    <dc:type rdf:resource="http://purl.org/dc/dcmitype/StillImage"/>
    <dc:title/>
   </cc:Work>
  </rdf:RDF>
 </metadata>
 <path id="rect23242" opacity="0.5" d="m14 3h-12v2h12v-2zm0 4h-12v2h12v-2zm0 4h-12v2h12v-2z"/>
</svg>

<?xml version="1.0" encoding="UTF-8" standalone="no"?>
<svg xmlns:osb="http://www.openswatchbook.org/uri/2009/osb" xmlns:dc="http://purl.org/dc/elements/1.1/" xmlns:cc="http://creativecommons.org/ns#" xmlns:rdf="http://www.w3.org/1999/02/22-rdf-syntax-ns#" xmlns:svg="http://www.w3.org/2000/svg" xmlns="http://www.w3.org/2000/svg" width="16" height="16" viewBox="0 0 16 16" id="svg6394" version="1.1">
    <defs id="defs6396">
        <linearGradient id="linearGradient19282" osb:paint="solid" gradientTransform="matrix(-0.40801424,2.7359005,1.4465395,0.18903615,2588.4859,828.26016)">
            <stop style="stop-color:#000000;stop-opacity:1;" offset="0" id="stop19284"/>
        </linearGradient>
        <linearGradient id="linearGradient19282-3" osb:paint="solid" gradientTransform="matrix(-2.7359006,0.40801425,-0.18903616,-1.4465395,-804.26018,-2564.486)">
            <stop style="stop-color:#000000;stop-opacity:1;" offset="0" id="stop19284-6"/>
        </linearGradient>
        <linearGradient gradientTransform="matrix(-2.73658,0.4081035,-0.1890831,-1.446856,-1254.4599,-3933.7766)" osb:paint="solid" id="linearGradient19282-36">
            <stop id="stop19284-7" offset="0" style="stop-color:#666666;stop-opacity:1;"/>
        </linearGradient>
    </defs>
    <metadata id="metadata6399">
        <rdf:RDF>
            <cc:Work rdf:about="">
                <dc:format>
                    image/svg+xml
                </dc:format>
                <dc:type rdf:resource="http://purl.org/dc/dcmitype/StillImage"/>
                <dc:title/>
            </cc:Work>
        </rdf:RDF>
    </metadata>
    <path id="rect23242" d="M 14,3 2,3 2,5 14,5 14,3 Z M 14,7 2,7 2,9 14,9 14,7 Z m 0,4 -12,0 0,2 12,0 0,-2 z" style="opacity:0.5000002;fill:#000000;fill-opacity:1;stroke:none"/>
</svg>
